package/converter/svg/regular/square-small.svg

<svg xmlns="http://www.w3.org/2000/svg" viewBox="0 0 320 512"><!-- Font Awesome Pro 6.0.0-alpha2 by @fontawesome - https://fontawesome.com License - https://fontawesome.com/license (Commercial License) --><path d="M256 96H64C28.654 96 0 124.654 0 160V352C0 387.346 28.654 416 64 416H256C291.346 416 320 387.346 320 352V160C320 124.654 291.346 96 256 96ZM272 352C272 360.822 264.822 368 256 368H64C55.178 368 48 360.822 48 352V160C48 151.178 55.178 144 64 144H256C264.822 144 272 151.178 272 160V352Z"/></svg>

<svg xmlns="http://www.w3.org/2000/svg" viewBox="0 0 320 512"><!--! Font Awesome Pro 6.6.0 by @fontawesome - https://fontawesome.com License - https://fontawesome.com/license (Commercial License) Copyright 2024 Fonticons, Inc. --><path d="M256 144c8.8 0 16 7.2 16 16l0 192c0 8.8-7.2 16-16 16L64 368c-8.8 0-16-7.2-16-16l0-192c0-8.8 7.2-16 16-16l192 0zM64 96C28.7 96 0 124.7 0 160L0 352c0 35.3 28.7 64 64 64l192 0c35.3 0 64-28.7 64-64l0-192c0-35.3-28.7-64-64-64L64 96z"/></svg>
